src/assets/imgs/logo.svg

<svg width="215" height="32" viewBox="0 0 215 32" fill="none" xmlns="http://www.w3.org/2000/svg">
<path d="M48.9609 17.5664C48.9609 15.5977 49.4219 14.0273 50.3438 12.8555C51.2734 11.6758 52.5039 11.0859 54.0352 11.0859C55.4805 11.0859 56.6172 11.5898 57.4453 12.5977L57.5742 11.3203H60.1406V23.6133C60.1406 25.2773 59.6211 26.5898 58.582 27.5508C57.5508 28.5117 56.1562 28.9922 54.3984 28.9922C53.4688 28.9922 52.5586 28.7969 51.668 28.4062C50.7852 28.0234 50.1133 27.5195 49.6523 26.8945L51 25.1836C51.875 26.2227 52.9531 26.7422 54.2344 26.7422C55.1797 26.7422 55.9258 26.4844 56.4727 25.9688C57.0195 25.4609 57.293 24.7109 57.293 23.7188V22.8633C56.4727 23.7773 55.3789 24.2344 54.0117 24.2344C52.5273 24.2344 51.3125 23.6445 50.3672 22.4648C49.4297 21.2852 48.9609 19.6523 48.9609 17.5664ZM51.7969 17.8125C51.7969 19.0859 52.0547 20.0898 52.5703 20.8242C53.0938 21.5508 53.8164 21.9141 54.7383 21.9141C55.8867 21.9141 56.7383 21.4219 57.293 20.4375V14.8594C56.7539 13.8984 55.9102 13.418 54.7617 13.418C53.8242 13.418 53.0938 13.7891 52.5703 14.5312C52.0547 15.2734 51.7969 16.3672 51.7969 17.8125ZM66.1055 24H63.2578V11.3203H66.1055V24ZM63.082 8.02734C63.082 7.58984 63.2188 7.22656 63.4922 6.9375C63.7734 6.64844 64.1719 6.50391 64.6875 6.50391C65.2031 6.50391 65.6016 6.64844 65.8828 6.9375C66.1641 7.22656 66.3047 7.58984 66.3047 8.02734C66.3047 8.45703 66.1641 8.81641 65.8828 9.10547C65.6016 9.38672 65.2031 9.52734 64.6875 9.52734C64.1719 9.52734 63.7734 9.38672 63.4922 9.10547C63.2188 8.81641 63.082 8.45703 63.082 8.02734ZM72.7852 8.23828V11.3203H75.0234V13.4297H72.7852V20.5078C72.7852 20.9922 72.8789 21.3438 73.0664 21.5625C73.2617 21.7734 73.6055 21.8789 74.0977 21.8789C74.4258 21.8789 74.7578 21.8398 75.0938 21.7617V23.9648C74.4453 24.1445 73.8203 24.2344 73.2188 24.2344C71.0312 24.2344 69.9375 23.0273 69.9375 20.6133V13.4297H67.8516V11.3203H69.9375V8.23828H72.7852ZM80.0156 12.7031C80.9453 11.625 82.1211 11.0859 83.543 11.0859C86.2461 11.0859 87.6172 12.6289 87.6562 15.7148V24H84.8086V15.8203C84.8086 14.9453 84.6172 14.3281 84.2344 13.9688C83.8594 13.6016 83.3047 13.418 82.5703 13.418C81.4297 13.418 80.5781 13.9258 80.0156 14.9414V24H77.168V6H80.0156V12.7031ZM98.2266 22.7578C97.3906 23.7422 96.2031 24.2344 94.6641 24.2344C93.2891 24.2344 92.2461 23.832 91.5352 23.0273C90.832 22.2227 90.4805 21.0586 90.4805 19.5352V11.3203H93.3281V19.5C93.3281 21.1094 93.9961 21.9141 95.332 21.9141C96.7148 21.9141 97.6484 21.418 98.1328 20.4258V11.3203H100.98V24H98.2969L98.2266 22.7578ZM115.008 17.7891C115.008 19.7578 114.566 21.3242 113.684 22.4883C112.809 23.6523 111.602 24.2344 110.062 24.2344C108.578 24.2344 107.422 23.6992 106.594 22.6289L106.453 24H103.875V6H106.723V12.5391C107.543 11.5703 108.648 11.0859 110.039 11.0859C111.586 11.0859 112.801 11.6602 113.684 12.8086C114.566 13.957 115.008 15.5625 115.008 17.625V17.7891ZM112.16 17.543C112.16 16.168 111.918 15.1367 111.434 14.4492C110.949 13.7617 110.246 13.418 109.324 13.418C108.09 13.418 107.223 13.957 106.723 15.0352V20.2617C107.23 21.3633 108.105 21.9141 109.348 21.9141C110.238 21.9141 110.926 21.582 111.41 20.918C111.895 20.2539 112.145 19.25 112.16 17.9062V17.543Z" fill="#737380"/>
<path d="M126.727 26.2383H115.98V24H126.727V26.2383ZM133.816 24.2344C132.012 24.2344 130.547 23.668 129.422 22.5352C128.305 21.3945 127.746 19.8789 127.746 17.9883V17.6367C127.746 16.3711 127.988 15.2422 128.473 14.25C128.965 13.25 129.652 12.4727 130.535 11.918C131.418 11.3633 132.402 11.0859 133.488 11.0859C135.215 11.0859 136.547 11.6367 137.484 12.7383C138.43 13.8398 138.902 15.3984 138.902 17.4141V18.5625H130.617C130.703 19.6094 131.051 20.4375 131.66 21.0469C132.277 21.6562 133.051 21.9609 133.98 21.9609C135.285 21.9609 136.348 21.4336 137.168 20.3789L138.703 21.8438C138.195 22.6016 137.516 23.1914 136.664 23.6133C135.82 24.0273 134.871 24.2344 133.816 24.2344ZM133.477 13.3711C132.695 13.3711 132.062 13.6445 131.578 14.1914C131.102 14.7383 130.797 15.5 130.664 16.4766H136.09V16.2656C136.027 15.3125 135.773 14.5938 135.328 14.1094C134.883 13.6172 134.266 13.3711 133.477 13.3711ZM145.676 15.4922L148.09 11.3203H151.254L147.375 17.5664L151.383 24H148.242L145.711 19.6641L143.191 24H140.027L144.035 17.5664L140.168 11.3203H143.309L145.676 15.4922ZM164.297 17.7891C164.297 19.75 163.852 21.3164 162.961 22.4883C162.07 23.6523 160.875 24.2344 159.375 24.2344C157.984 24.2344 156.871 23.7773 156.035 22.8633V28.875H153.188V11.3203H155.812L155.93 12.6094C156.766 11.5938 157.902 11.0859 159.34 11.0859C160.887 11.0859 162.098 11.6641 162.973 12.8203C163.855 13.9688 164.297 15.5664 164.297 17.6133V17.7891ZM161.461 17.543C161.461 16.2773 161.207 15.2734 160.699 14.5312C160.199 13.7891 159.48 13.418 158.543 13.418C157.379 13.418 156.543 13.8984 156.035 14.8594V20.4844C156.551 21.4688 157.395 21.9609 158.566 21.9609C159.473 21.9609 160.18 21.5977 160.688 20.8711C161.203 20.1367 161.461 19.0273 161.461 17.543ZM169.746 24H166.898V6H169.746V24ZM172.324 17.543C172.324 16.3008 172.57 15.1836 173.062 14.1914C173.555 13.1914 174.246 12.4258 175.137 11.8945C176.027 11.3555 177.051 11.0859 178.207 11.0859C179.918 11.0859 181.305 11.6367 182.367 12.7383C183.438 13.8398 184.016 15.3008 184.102 17.1211L184.113 17.7891C184.113 19.0391 183.871 20.1562 183.387 21.1406C182.91 22.125 182.223 22.8867 181.324 23.4258C180.434 23.9648 179.402 24.2344 178.23 24.2344C176.441 24.2344 175.008 23.6406 173.93 22.4531C172.859 21.2578 172.324 19.668 172.324 17.6836V17.543ZM175.172 17.7891C175.172 19.0938 175.441 20.1172 175.98 20.8594C176.52 21.5938 177.27 21.9609 178.23 21.9609C179.191 21.9609 179.938 21.5859 180.469 20.8359C181.008 20.0859 181.277 18.9883 181.277 17.543C181.277 16.2617 181 15.2461 180.445 14.4961C179.898 13.7461 179.152 13.3711 178.207 13.3711C177.277 13.3711 176.539 13.7422 175.992 14.4844C175.445 15.2188 175.172 16.3203 175.172 17.7891ZM193.16 13.9219C192.785 13.8594 192.398 13.8281 192 13.8281C190.695 13.8281 189.816 14.3281 189.363 15.3281V24H186.516V11.3203H189.234L189.305 12.7383C189.992 11.6367 190.945 11.0859 192.164 11.0859C192.57 11.0859 192.906 11.1406 193.172 11.25L193.16 13.9219ZM200.309 24.2344C198.504 24.2344 197.039 23.668 195.914 22.5352C194.797 21.3945 194.238 19.8789 194.238 17.9883V17.6367C194.238 16.3711 194.48 15.2422 194.965 14.25C195.457 13.25 196.145 12.4727 197.027 11.918C197.91 11.3633 198.895 11.0859 199.98 11.0859C201.707 11.0859 203.039 11.6367 203.977 12.7383C204.922 13.8398 205.395 15.3984 205.395 17.4141V18.5625H197.109C197.195 19.6094 197.543 20.4375 198.152 21.0469C198.77 21.6562 199.543 21.9609 200.473 21.9609C201.777 21.9609 202.84 21.4336 203.66 20.3789L205.195 21.8438C204.688 22.6016 204.008 23.1914 203.156 23.6133C202.312 24.0273 201.363 24.2344 200.309 24.2344ZM199.969 13.3711C199.188 13.3711 198.555 13.6445 198.07 14.1914C197.594 14.7383 197.289 15.5 197.156 16.4766H202.582V16.2656C202.52 15.3125 202.266 14.5938 201.82 14.1094C201.375 13.6172 200.758 13.3711 199.969 13.3711ZM214.254 13.9219C213.879 13.8594 213.492 13.8281 213.094 13.8281C211.789 13.8281 210.91 14.3281 210.457 15.3281V24H207.609V11.3203H210.328L210.398 12.7383C211.086 11.6367 212.039 11.0859 213.258 11.0859C213.664 11.0859 214 11.1406 214.266 11.25L214.254 13.9219Z" fill="#A8A8B3"/>
<path fill-rule="evenodd" clip-rule="evenodd" d="M0 16C0 7.16002 7.16002 0 16 0C24.84 0 32 7.16002 31.9999 16C31.9999 24.832 24.8399 31.9999 16 31.9999C7.16002 31.9999 0 24.832 0 16ZM6.39997 25.6L19.504 19.504L25.6 6.39997L12.496 12.496L6.39997 25.6ZM17.76 16C17.76 16.968 16.9759 17.76 16 17.76C15.032 17.76 14.2399 16.968 14.2399 16C14.2399 15.0319 15.0319 14.2399 16 14.2399C16.976 14.2399 17.76 15.0319 17.76 16Z" fill="#121214"/>
</svg>

<?xml version="1.0" encoding="utf-8"?>
<!-- Generator: Adobe Illustrator 24.1.3, SVG Export Plug-In . SVG Version: 6.00 Build 0)  -->
<svg version="1.1" id="Camada_1" xmlns="http://www.w3.org/2000/svg" xmlns:xlink="http://www.w3.org/1999/xlink" x="0px" y="0px"
	 viewBox="0 0 215 32" style="enable-background:new 0 0 215 32;" xml:space="preserve">
<style type="text/css">
	.st0{fill:#607D8B;}
	.st1{fill:#348EB9;}
	.st2{fill-rule:evenodd;clip-rule:evenodd;fill:#607D8B;}
</style>
<path class="st0" d="M49,17.6c0-2,0.5-3.5,1.4-4.7c0.9-1.2,2.2-1.8,3.7-1.8c1.4,0,2.6,0.5,3.4,1.5l0.1-1.3h2.6v12.3
	c0,1.7-0.5,3-1.6,3.9c-1,1-2.4,1.4-4.2,1.4c-0.9,0-1.8-0.2-2.7-0.6c-0.9-0.4-1.6-0.9-2-1.5l1.3-1.7c0.9,1,2,1.6,3.2,1.6
	c0.9,0,1.7-0.3,2.2-0.8c0.5-0.5,0.8-1.3,0.8-2.3v-0.9c-0.8,0.9-1.9,1.4-3.3,1.4c-1.5,0-2.7-0.6-3.6-1.8C49.4,21.3,49,19.7,49,17.6z
	 M51.8,17.8c0,1.3,0.3,2.3,0.8,3c0.5,0.7,1.2,1.1,2.2,1.1c1.1,0,2-0.5,2.6-1.5v-5.6c-0.5-1-1.4-1.4-2.5-1.4c-0.9,0-1.7,0.4-2.2,1.1
	C52.1,15.3,51.8,16.4,51.8,17.8z M66.1,24h-2.8V11.3h2.8V24z M63.1,8c0-0.4,0.1-0.8,0.4-1.1c0.3-0.3,0.7-0.4,1.2-0.4
	s0.9,0.1,1.2,0.4c0.3,0.3,0.4,0.7,0.4,1.1c0,0.4-0.1,0.8-0.4,1.1c-0.3,0.3-0.7,0.4-1.2,0.4s-0.9-0.1-1.2-0.4
	C63.2,8.8,63.1,8.5,63.1,8z M72.8,8.2v3.1H75v2.1h-2.2v7.1c0,0.5,0.1,0.8,0.3,1.1c0.2,0.2,0.5,0.3,1,0.3c0.3,0,0.7,0,1-0.1V24
	c-0.6,0.2-1.3,0.3-1.9,0.3c-2.2,0-3.3-1.2-3.3-3.6v-7.2h-2.1v-2.1h2.1V8.2H72.8z M80,12.7c0.9-1.1,2.1-1.6,3.5-1.6
	c2.7,0,4.1,1.5,4.1,4.6V24h-2.8v-8.2c0-0.9-0.2-1.5-0.6-1.9c-0.4-0.4-0.9-0.6-1.7-0.6c-1.1,0-2,0.5-2.6,1.5V24h-2.8V6H80V12.7z
	 M98.2,22.8c-0.8,1-2,1.5-3.6,1.5c-1.4,0-2.4-0.4-3.1-1.2c-0.7-0.8-1.1-2-1.1-3.5v-8.2h2.8v8.2c0,1.6,0.7,2.4,2,2.4
	c1.4,0,2.3-0.5,2.8-1.5v-9.1h2.8V24h-2.7L98.2,22.8z M115,17.8c0,2-0.4,3.5-1.3,4.7c-0.9,1.2-2.1,1.7-3.6,1.7
	c-1.5,0-2.6-0.5-3.5-1.6l-0.1,1.4h-2.6V6h2.8v6.5c0.8-1,1.9-1.5,3.3-1.5c1.5,0,2.8,0.6,3.6,1.7c0.9,1.1,1.3,2.8,1.3,4.8V17.8z
	 M112.2,17.5c0-1.4-0.2-2.4-0.7-3.1c-0.5-0.7-1.2-1-2.1-1c-1.2,0-2.1,0.5-2.6,1.6v5.2c0.5,1.1,1.4,1.7,2.6,1.7c0.9,0,1.6-0.3,2.1-1
	c0.5-0.7,0.7-1.7,0.8-3V17.5z"/>
<path class="st1" d="M126.7,26.2H116V24h10.7V26.2z M133.8,24.2c-1.8,0-3.3-0.6-4.4-1.7c-1.1-1.1-1.7-2.7-1.7-4.5v-0.4
	c0-1.3,0.2-2.4,0.7-3.4c0.5-1,1.2-1.8,2.1-2.3c0.9-0.6,1.9-0.8,3-0.8c1.7,0,3.1,0.6,4,1.7c0.9,1.1,1.4,2.7,1.4,4.7v1.1h-8.3
	c0.1,1,0.4,1.9,1,2.5c0.6,0.6,1.4,0.9,2.3,0.9c1.3,0,2.4-0.5,3.2-1.6l1.5,1.5c-0.5,0.8-1.2,1.3-2,1.8
	C135.8,24,134.9,24.2,133.8,24.2z M133.5,13.4c-0.8,0-1.4,0.3-1.9,0.8c-0.5,0.5-0.8,1.3-0.9,2.3h5.4v-0.2c-0.1-1-0.3-1.7-0.8-2.2
	C134.9,13.6,134.3,13.4,133.5,13.4z M145.7,15.5l2.4-4.2h3.2l-3.9,6.2l4,6.4h-3.1l-2.5-4.3l-2.5,4.3H140l4-6.4l-3.9-6.2h3.1
	L145.7,15.5z M164.3,17.8c0,2-0.4,3.5-1.3,4.7c-0.9,1.2-2.1,1.7-3.6,1.7c-1.4,0-2.5-0.5-3.3-1.4v6h-2.8V11.3h2.6l0.1,1.3
	c0.8-1,2-1.5,3.4-1.5c1.5,0,2.8,0.6,3.6,1.7c0.9,1.1,1.3,2.7,1.3,4.8V17.8z M161.5,17.5c0-1.3-0.3-2.3-0.8-3
	c-0.5-0.7-1.2-1.1-2.2-1.1c-1.2,0-2,0.5-2.5,1.4v5.6c0.5,1,1.4,1.5,2.5,1.5c0.9,0,1.6-0.4,2.1-1.1C161.2,20.1,161.5,19,161.5,17.5z
	 M169.7,24h-2.8V6h2.8V24z M172.3,17.5c0-1.2,0.2-2.4,0.7-3.4c0.5-1,1.2-1.8,2.1-2.3c0.9-0.5,1.9-0.8,3.1-0.8c1.7,0,3.1,0.6,4.2,1.7
	c1.1,1.1,1.6,2.6,1.7,4.4l0,0.7c0,1.3-0.2,2.4-0.7,3.4c-0.5,1-1.2,1.7-2.1,2.3c-0.9,0.5-1.9,0.8-3.1,0.8c-1.8,0-3.2-0.6-4.3-1.8
	c-1.1-1.2-1.6-2.8-1.6-4.8V17.5z M175.2,17.8c0,1.3,0.3,2.3,0.8,3.1c0.5,0.7,1.3,1.1,2.3,1.1c1,0,1.7-0.4,2.2-1.1
	c0.5-0.8,0.8-1.8,0.8-3.3c0-1.3-0.3-2.3-0.8-3c-0.5-0.8-1.3-1.1-2.2-1.1c-0.9,0-1.7,0.4-2.2,1.1C175.4,15.2,175.2,16.3,175.2,17.8z
	 M193.2,13.9c-0.4-0.1-0.8-0.1-1.2-0.1c-1.3,0-2.2,0.5-2.6,1.5V24h-2.8V11.3h2.7l0.1,1.4c0.7-1.1,1.6-1.7,2.9-1.7
	c0.4,0,0.7,0.1,1,0.2L193.2,13.9z M200.3,24.2c-1.8,0-3.3-0.6-4.4-1.7c-1.1-1.1-1.7-2.7-1.7-4.5v-0.4c0-1.3,0.2-2.4,0.7-3.4
	c0.5-1,1.2-1.8,2.1-2.3c0.9-0.6,1.9-0.8,3-0.8c1.7,0,3.1,0.6,4,1.7c0.9,1.1,1.4,2.7,1.4,4.7v1.1h-8.3c0.1,1,0.4,1.9,1,2.5
	c0.6,0.6,1.4,0.9,2.3,0.9c1.3,0,2.4-0.5,3.2-1.6l1.5,1.5c-0.5,0.8-1.2,1.3-2,1.8C202.3,24,201.4,24.2,200.3,24.2z M200,13.4
	c-0.8,0-1.4,0.3-1.9,0.8c-0.5,0.5-0.8,1.3-0.9,2.3h5.4v-0.2c-0.1-1-0.3-1.7-0.8-2.2C201.4,13.6,200.8,13.4,200,13.4z M214.3,13.9
	c-0.4-0.1-0.8-0.1-1.2-0.1c-1.3,0-2.2,0.5-2.6,1.5V24h-2.8V11.3h2.7l0.1,1.4c0.7-1.1,1.6-1.7,2.9-1.7c0.4,0,0.7,0.1,1,0.2
	L214.3,13.9z"/>
<path class="st2" d="M0,16C0,7.2,7.2,0,16,0c8.8,0,16,7.2,16,16c0,8.8-7.2,16-16,16C7.2,32,0,24.8,0,16z M6.4,25.6l13.1-6.1
	l6.1-13.1l-13.1,6.1L6.4,25.6z M17.8,16c0,1-0.8,1.8-1.8,1.8c-1,0-1.8-0.8-1.8-1.8c0-1,0.8-1.8,1.8-1.8C17,14.2,17.8,15,17.8,16z"/>
</svg>
